X: 389
T:Incessament livr\'e
N: Derived from Jos2908-Incessament_livre.krn
C: Josquin des Prez
%%abc-version 2.0
%%abcx-abcm2ps-target-version 5.9.1 (29 Sep 2008)
%%abc-creator hum2abc beta
%%abcx-conversion-date 2019/02/12 16:15:55
%%abc-edited-by Jesse Rodin
%%abc-edited-by Will Watson 13/11/2011
%%abcx-initial-encoding-date 2011/11/13/
%%humdrum-veritas 3901108923
%%humdrum-veritas-data 2842824080
%%linebreak <none>
%%barnumbers 0
L: 1/4
M: 2/1
Q: 1/2=120
V: 1 clef=treble
V: 2 clef=treble-8
V: 3 clef=treble-8
V: 4 clef=bass
V: 5 clef=bass
K: C
[V:1] z8 | 
[V:2] z4e4 | 
[V:3] z8 | 
[V:4] z8 | 
[V:5] E,4E,4 | 
[V:1] z4E4 | 
[V:2] e4e4 | 
[V:3] z8 | 
[V:4] z8 | 
[V:5] E,4C,4- | 
[V:1] E4E4 | 
[V:2] c6A2 | 
[V:3] z4A4 | 
[V:4] z8 | 
[V:5] C,2A,,2A,,4 | 
[V:1] C6A,2 | 
[V:2] A8 | 
[V:3] A4A4 | 
[V:4] z4A,4 | 
[V:5] z8 | 
[V:1] A,8 | 
[V:2] z8 | 
[V:3] F6D2 | 
[V:4] A,4A,4 | 
[V:5] z4A,4 | 
[V:1] z4A4 | 
[V:2] z8 | 
[V:3] D8 | 
[V:4] F,6D,2 | 
[V:5] A,4A,4 | 
[V:1] A4A4 | 
[V:2] z4A4 | 
[V:3] z8 | 
[V:4] D,8 | 
[V:5] F,6D,2 | 
[V:1] F6D2 | 
[V:2] d4d4 | 
[V:3] z4D4 | 
[V:4] z8 | 
[V:5] D,8 | 
[V:1] D8 | 
[V:2] B4G4 | 
[V:3] G4G4 | 
[V:4] z8 | 
[V:5] z8 | 
[V:1] z4F4 | 
[V:2] A8 | 
[V:3] F2D2d4- | 
[V:4] z4D,4 | 
[V:5] D,4D,2D,2 | 
[V:1] G4D4 | 
[V:2] B8 | 
[V:3] d2B2B3G | 
[V:4] G,4G,4 | 
[V:5] G,,4G,,4 | 
[V:1] E4E4 | 
[V:2] z8 | 
[V:3] G2c3BA2- | 
[V:4] E,4C,4 | 
[V:5] C,4A,,4 | 
[V:1] D6CB, | 
[V:2] z8 | 
[V:3] A2^G^F^G4 | 
[V:4] D,8 | 
[V:5] B,,8 | 
[V:1] C8 | 
[V:2] z4e4 | 
[V:3] A8- | 
[V:4] E,8 | 
[V:5] A,,8- | 
[V:1] z4E4 | 
[V:2] e4e4 | 
[V:3] A8 | 
[V:4] z8 | 
[V:5] A,,8 | 
[V:1] E4E4 | 
[V:2] c6A2 | 
[V:3] z4A4 | 
[V:4] z8 | 
[V:5] z8 | 
[V:1] C6A,2 | 
[V:2] A8 | 
[V:3] A4A4 | 
[V:4] z4A,4 | 
[V:5] z8 | 
[V:1] A,8 | 
[V:2] z8 | 
[V:3] F6D2 | 
[V:4] A,4A,4 | 
[V:5] z4A,4 | 
[V:1] z4A4 | 
[V:2] z8 | 
[V:3] D8 | 
[V:4] F,6D,2 | 
[V:5] A,4A,4 | 
[V:1] A4A4 | 
[V:2] z4A4 | 
[V:3] z8 | 
[V:4] D,8 | 
[V:5] F,6D,2 | 
[V:1] F6D2 | 
[V:2] d4d4 | 
[V:3] z4D4 | 
[V:4] z8 | 
[V:5] D,8 | 
[V:1] D8 | 
[V:2] B4G4 | 
[V:3] G4G4 | 
[V:4] z8 | 
[V:5] z8 | 
[V:1] z4F4 | 
[V:2] A8 | 
[V:3] F2D2d4- | 
[V:4] z4D,4 | 
[V:5] D,4D,2D,2 | 
[V:1] G4D4 | 
[V:2] B8 | 
[V:3] d2cBB3G | 
[V:4] G,4G,4 | 
[V:5] G,,4G,,4 | 
[V:1] E4E4 | 
[V:2] z8 | 
[V:3] G2c3BA2- | 
[V:4] E,4C,4 | 
[V:5] C,4A,,4 | 
[V:1] D6CB, | 
[V:2] z8 | 
[V:3] A2^G^F^G4 | 
[V:4] D,8 | 
[V:5] B,,8 | 
[V:1] C4c4 | 
[V:2] e8 | 
[V:3] A4z2E2 | 
[V:4] E,8 | 
[V:5] A,,8 | 
[V:1] B4A4- | 
[V:2] d4c4 | 
[V:3] G4A4 | 
[V:4] z8 | 
[V:5] z8 | 
[V:1] A2^G^FG4 | 
[V:2] B8 | 
[V:3] E8 | 
[V:4] z8 | 
[V:5] z8 | 
[V:1] A4c4 | 
[V:2] z8 | 
[V:3] z4e4 | 
[V:4] A,8 | 
[V:5] z4A,,4 | 
[V:1] B4A4- | 
[V:2] z8 | 
[V:3] e4A4 | 
[V:4] G,4F,4 | 
[V:5] E,4F,4 | 
[V:1] A2^G^FG4 | 
[V:2] z4B4 | 
[V:3] e8- | 
[V:4] E,8 | 
[V:5] C,3D,E,4 | 
[V:1] A2c2c2c2 | 
[V:2] c4A2e2- | 
[V:3] e8 | 
[V:4] z8 | 
[V:5] z2A,,2A,,2A,,2 | 
[V:1] B2c4BA | 
[V:2] edcBc4 | 
[V:3] z8 | 
[V:4] z8 | 
[V:5] E,4A,,4 | 
[V:1] G8 | 
[V:2] B8 | 
[V:3] z4z2e2 | 
[V:4] z4E,4 | 
[V:5] E,8 | 
[V:1] z8 | 
[V:2] z8 | 
[V:3] c2d3ef2- | 
[V:4] F,4D,2A,2- | 
[V:5] z8 | 
[V:1] z8 | 
[V:2] z8 | 
[V:3] fee4d2 | 
[V:4] A,G,F,E,F,4 | 
[V:5] z8 | 
[V:1] z4c4 | 
[V:2] e8 | 
[V:3] e8 | 
[V:4] E,8 | 
[V:5] z4C,4 | 
[V:1] B4A4- | 
[V:2] d4c4 | 
[V:3] z4e4 | 
[V:4] z8 | 
[V:5] G,4A,4 | 
[V:1] A2^G^FG4 | 
[V:2] B8 | 
[V:3] e4e4 | 
[V:4] z8 | 
[V:5] E,8 | 
[V:1] A4c4 | 
[V:2] z8 | 
[V:3] c4z2e2- | 
[V:4] A,8 | 
[V:5] z4A,,4 | 
[V:1] B4A4- | 
[V:2] z8 | 
[V:3] e2e2A4 | 
[V:4] G,4F,4 | 
[V:5] E,4F,4 | 
[V:1] A2^G^FG4 | 
[V:2] z4B4 | 
[V:3] e8- | 
[V:4] E,8 | 
[V:5] C,3D,E,4 | 
[V:1] A2c2c2c2 | 
[V:2] c4A2e2- | 
[V:3] e8 | 
[V:4] z8 | 
[V:5] z2A,,2A,,2A,,2 | 
[V:1] B2c4BA | 
[V:2] edcBc4 | 
[V:3] z8 | 
[V:4] z8 | 
[V:5] E,4A,,4 | 
[V:1] G8 | 
[V:2] B8 | 
[V:3] z4z2e2 | 
[V:4] z4E,4 | 
[V:5] E,8 | 
[V:1] z8 | 
[V:2] z8 | 
[V:3] c2d3ef2- | 
[V:4] F,4D,2A,2- | 
[V:5] z8 | 
[V:1] z8 | 
[V:2] z8 | 
[V:3] f2e4d2 | 
[V:4] A,G,F,E,F,4 | 
[V:5] z8 | 
[V:1] z4G4 | 
[V:2] z4e4 | 
[V:3] e8 | 
[V:4] E,8 | 
[V:5] z4E,4 | 
[V:1] A4A4- | 
[V:2] c4d4 | 
[V:3] z4A4 | 
[V:4] z8 | 
[V:5] F,4F,4 | 
[V:1] A2^G^FG4 | 
[V:2] e8 | 
[V:3] B4B4 | 
[V:4] z8 | 
[V:5] E,8 | 
[V:1] A8 | 
[V:2] z4c4 | 
[V:3] A8 | 
[V:4] z4A,4 | 
[V:5] z4A,,4 | 
[V:1] z8 | 
[V:2] d4d4 | 
[V:3] z4D4 | 
[V:4] F,4G,4 | 
[V:5] B,,4B,,4 | 
[V:1] z8 | 
[V:2] c4c4 | 
[V:3] E4E4 | 
[V:4] A,8 | 
[V:5] A,,8 | 
[V:1] z4A4 | 
[V:2] f8 | 
[V:3] D4d4 | 
[V:4] z8 | 
[V:5] z4D,4 | 
[V:1] G4E4 | 
[V:2] e8 | 
[V:3] B4c4 | 
[V:4] G,4G,4 | 
[V:5] E,4C,4 | 
[V:1] F4F4 | 
[V:2] z8 | 
[V:3] A4A4 | 
[V:4] F,4F,4 | 
[V:5] D,4D,4 | 
[V:1] G3FD4 | 
[V:2] z8 | 
[V:3] G2D2G4 | 
[V:4] _B,8 | 
[V:5] G,,8 | 
[V:1] z4F4 | 
[V:2] z4d4 | 
[V:3] F8 | 
[V:4] A,8 | 
[V:5] D,8 | 
[V:1] G4G4 | 
[V:2] e4e4 | 
[V:3] z4c4 | 
[V:4] z8 | 
[V:5] z4C,4 | 
[V:1] A2c3BA2 | 
[V:2] A4A4 | 
[V:3] c6d2 | 
[V:4] z8 | 
[V:5] F,4F,4 | 
[V:1] G2F2(3G3AB2 | 
[V:2] c2d2B4 | 
[V:3] e2f2e4 | 
[V:4] z4G,4 | 
[V:5] E,2D,2E,4 | 
[V:1] c2F2E2A2- | 
[V:2] A8- | 
[V:3] c2A2c2c2 | 
[V:4] A,4A,4 | 
[V:5] A,,2D,2C,2F,2- | 
[V:1] AGF4ED | 
[V:2] A8 | 
[V:3] F6G2 | 
[V:4] D,4D,4 | 
[V:5] F,E,D,4C,B,, | 
[V:1] C2D4^C2 | 
[V:2] z8 | 
[V:3] A2_B2A4 | 
[V:4] F,2G,2E,4 | 
[V:5] A,,2G,,2A,,4 | 
[V:1] D8- | 
[V:2] A4A4 | 
[V:3] F4D4 | 
[V:4] D,8- | 
[V:5] D,8- | 
[V:1] D8- | 
[V:2] d8- | 
[V:3] F6D2 | 
[V:4] D,8- | 
[V:5] D,8- | 
[V:1] D8 |]  
[V:2] d8 |]  
[V:3] D8 |]  
[V:4] D,8 |]  
[V:5] D,8 |]  



